assets/icons/qvision/fit_screen.svg

<svg xmlns="http://www.w3.org/2000/svg" height="24" viewBox="0 0 24 24" width="24"><path d="M0 0h24v24H0z" fill="none"/><path d="M17 4h3c1.1 0 2 .9 2 2v2h-2V6h-3V4zM4 8V6h3V4H4c-1.1 0-2 .9-2 2v2h2zm16 8v2h-3v2h3c1.1 0 2-.9 2-2v-2h-2zM7 18H4v-2H2v2c0 1.1.9 2 2 2h3v-2zM18 8H6v8h12V8z"/></svg>

<svg width="24" height="24" viewBox="0 0 24 24" fill="none" xmlns="http://www.w3.org/2000/svg">
<g clip-path="url(#clip0_147_4204)">
<path d="M17 4H20C21.1 4 22 4.9 22 6V8H20V6H17V4ZM4 8V6H7V4H4C2.9 4 2 4.9 2 6V8H4ZM20 16V18H17V20H20C21.1 20 22 19.1 22 18V16H20ZM7 18H4V16H2V18C2 19.1 2.9 20 4 20H7V18ZM18 8H6V16H18V8Z" fill="#323232"/>
</g>
<defs>
<clipPath id="clip0_147_4204">
<rect width="24" height="24" fill="white"/>
</clipPath>
</defs>
</svg>
